X: 39293
T: Take A Message To Julie
R: reel
M: 4/4
K: Edorian
EBAG AE~E2|GBdB cA~A2|EBAG AE~E2|GAdG GAdG|
EBAG AE~E2|GBdB cA~A2|edBA BE~E2|DEFD e2z2:|
|:eB~B2 GBeB|dA~A2 GAdG|=cG~G2 EGcG|cAAd AAe2|
eB~B2 GBeB|dA~A2 GAdG|EDGB AF~F2|DEGF e2z2:|

